X:1
T:I Shall Have Wings
T:I Shall Have Wings
T:John Robson Sweney
T:Frances Jane (Fanny) Crosby, 1882
T:Public Domain Courtesy of the Cyber Hymnal™
C:John Robson Sweney
Z:Public Domain
Z:Courtesy of the Cyber Hymnal™
%%score ( 1 2 ) ( 3 4 )
L:1/8
Q:1/4=97
M:6/8
K:Ab
V:1 treble 
V:2 treble 
V:3 bass 
V:4 bass 
V:1
 [CE]/[CE]/ | [CE]2 [CE] [CE][=B,=D][CE] | [CA]2 [DA] [CA]2 [DA] | [EB][EB][EB] [EA]2 [EB] | %4
w: 1.~There’s a|voice that comes in my|lone- ly hours, And|ten- der- ly speaks to|
w: 2.~O I|sit and think of those|ra- diant wings, By|faith I be- hold them|
w: 3.~There’s a|home for me, there’s a|home for me, My|Sav- ior has told me|
w: 4.~Oh the|wings, the wings that I|soon shall wear, And|joy- ful- ly speed my|
 [Ec]3- [Ec]2 [Ec] | [Fd]2 [Fd] [Fd][DF][Fd] | [Fd]2 [Ec] [Ec]2 [Ec] | [EB][EB][EB] [=DB]2 [Dc] | %8
w: me * Of|rest and home in my|Fa- ther’s house, Where|hap- py my soul shall|
w: now, * And|feel the hand of my|Sav- ior laid So|lov- ing- ly on my|
w: so, * Were|tears of sor- row and|pain shall cease And|plea- sure e- ter- nal|
w: flight * From|toil and care to a|man- sion fair Of|beau- ty and end- less|
 (B3 !fermata!d3) ||"^Refrain" [Ec]>[DB][CA] [CA]3 | [DA]>[EG][DF] [DF]3 | EE[EA] [EB]2 [Ec] | %12
w: be. *||||
w: brow. *|I shall have wings,|beau- ti- ful wings,|I shall have wings some|
w: flow. *||||
w: light. *||||
 [EB]3- [EB]2 [EB] | [Ec]2 [Ed] [Ee]2 [Ec] | [DB]2 [Ec] !fermata![Fd]2 [DB] | %15
w: |||
w: day— * Bright|wings of love from|God a- bove To|
w: |||
w: |||
 [CA][CA][CE] [Ec]2 [DB] | [CA]3- [CA]2 |] %17
w: ||
w: bear my glad soul a-|way. *|
w: ||
w: ||
V:2
 x | x6 | x6 | x6 | x6 | x6 | x6 | x6 | E6 || x6 | x6 | EE x4 | x6 | x6 | x6 | x6 | x5 |] %17
V:3
 [A,,A,]/[A,,A,]/ | [A,,A,]2 [A,,A,] [A,,A,][A,,A,][A,,A,] | [A,,E,]2 [A,,F,] [A,,E,]2 [C,A,] | %3
 [E,G,][E,G,][E,G,] [C,A,]2 [C,G,] | [A,,A,]3- [A,,A,]2 [A,,A,] | %5
 [D,A,]2 [D,A,] [D,A,][D,A,][D,A,] | A,2 A, A,2 [A,,A,] | [B,,G,][B,,G,][B,,G,] [B,,F,]2 [B,,G,] | %8
 (G,3 B,3) || A,>[A,,E,][A,,E,] [A,,E,]3 | [D,F,]>[D,G,][D,A,] [D,A,]3 | %11
 [C,A,][C,A,][C,A,] [B,,G,]2 [A,,A,] | [E,G,]3- [E,G,]2 [E,G,] | A,2 [A,B,] [A,C]2 A, | %14
 [D,F,]2 [C,=A,] !fermata![B,,B,]2 [D,F,] | E,E,E, [E,A,]2 [E,G,] | [A,,A,]3- [A,,A,]2 |] %17
V:4
 x | x6 | x6 | x6 | x6 | x6 | A,2 A, A,2 x | x6 | E,6 || A,3/2 x9/2 | x6 | x6 | x6 | A,2 x A, x2 | %14
 x6 | E,E,E, x3 | x5 |] %17

